X:2015
T:Hie mee stiagh dys thie ben treoghe 
C:Thomas Kneen, Port St Mary
N:The words of the song were considered by Clague as to rude to collect.  This may be the only manx song that is still being passed on in oral form only.
O:Isle of Man
S:Traditional
Z:Clague Collection
B:Kiaull Vannin #15 
M:6/8 
Q:160 
K:G 
B2c d2G|B2c d2G|B2c dBG|B3 d3|B2c d2G|BcB A2c|B2G AGF|G3 G3:| 
g3 G3|BcB A3|g3 G3|B3 d3|g3 G3|BcB A2c|B2G AGF|G3 G3:| 
